X:710
T:Halling efter Per Myhr 
T:Oktavstämma
R:Halling
Z:Arr/transkr. Lennart Sohlman
M:2/4
L:1/16
Q:1/4=100
K:Am
(B|:e2)(ef) e2(ec)|e2(dB) c2(c>d|e2)(ef e2)(ec)|[1e2dB c3(d:|[2e2dB c3(B|:!
A2)(Ac B2)(B^G|E2)(E^G) B2(ec)|A2(Ac) {cd}(cB)(B^G)|E2(E^G) B2(ec)|!
A2(Ac) (cB)(^GB)|[1A4 [E3A3](c:|[2A4 [E4A4]|]

